X: 41508
T: Uist Dance
R: reel
M: 4/4
K: Dmajor
D2 dB dA F2|D2 dF EF G/F/E|D2 dB dA F2|GA FA EF G/F/E|D2 dB dA F2|
D2 dF EF G/F/E|D2 dB dA F2|GA FA EF G/F/E:|:D/D/D AF/F/ FA D/D/D|
AF/F/ FA D/D/D AF/F/|FA EF GF E2|D/D/D AF/F/ FA D/D/D|AF/F/ FA G/G/G AF/F/|
FA EF GF E2|D/D/D AF/F/ FA D/D/D|AF/F/ FA D/D/D AF/F/|FA EF GF E2|
D2 dB dA F2|GA FA EF G/F/E|

